svgs/sharp-regular/signal-slash.svg

<svg xmlns="http://www.w3.org/2000/svg" viewBox="0 0 640 512"><!--! Font Awesome Pro 6.6.0 by @fontawesome - https://fontawesome.com License - https://fontawesome.com/license (Commercial License) Copyright 2024 Fonticons, Inc. --><path d="M552 512l48 0s0 0 0 0l-48 0s0 0 0 0zm0-106.2L552 24l0-24 48 0 0 24 0 419 20.9 16.2 19 14.7-29.4 37.9-19-14.7L19 52.7 0 38 29.4 .1l19 14.7L296 207l0-15 48 0 0 24 0 28.3 80 62.1L424 120l0-24 48 0 0 24 0 223.7 80 62.1zm-80 62.1l0 20.1 0 24-48 0 0-24 0-57.9 48 37.8zM344 367l0 121 0 24-48 0 0-24 0-158.8L344 367zM216 288l0 24 0 176 0 24-48 0 0-24 0-176 0-24 48 0zM88 384l0 24 0 80 0 24-48 0 0-24 0-80 0-24 48 0z"/></svg>

<svg xmlns="http://www.w3.org/2000/svg" viewBox="0 0 640 512"><!--! Font Awesome Pro 6.4.2 by @fontawesome - https://fontawesome.com License - https://fontawesome.com/license (Commercial License) Copyright 2023 Fonticons, Inc. --><path d="M552 512h48v0H552v0zm0-106.2V24 0h48V24 443l20.9 16.2 19 14.7-29.4 37.9-19-14.7L19 52.7 0 38 29.4 .1l19 14.7L296 207V192h48v24 28.3l80 62.1V120 96h48v24V343.7l80 62.1zm-80 62.1V488v24H424V488 430.1l48 37.8zM344 367V488v24H296V488 329.2L344 367zM216 288v24V488v24H168V488 312 288h48zM88 384v24 80 24H40V488 408 384H88z"/></svg>
